X: 31835
T: Paudeen O'Rafferty
R: jig
M: 6/8
K: Gmajor
GAB D2 E|GAB AGE|GAB D2 E|GAG GED|
GAB D2 E|GAB d2 e|dBG AGA|BGG G2:|
dBB dBB|dBB A2 B|dBB dBA|GAB GED|
dBB dBe|dBd g2 e|dBG AGA|BGG G3:|

